!!!COM: Bach, Johann Sebastian
!!!CDT: 1685/3//-1750/7/28/
!!!OTL@@DE: Vater unser im Himmelreich
!!!OTL@EN: Our Father in Heaven
!!!AGN: 4-Part Chorale
!!!SCT: Erk 110
!!!SCT: BWV 102
!!!YEC: Copyright 1994, David Huron
!!!YEC: Changes/Additions 2001 by Craig Stuart Sapp
!!!YEN: United States of America
!!!SMA: 371 Bach Chorales, edited by Ludwig Erk, C.F. Peters
!!!PDT: 1850, 1865
!!!ONB: Harmony and Root analysis done manually
**kern	**kern	**kern	**kern	**root	**harm	**kern
!bass	!tenor	!alto	!soprno	!	!	!
*Iorgan	*Iorgan	*Iorgan	*Iorgan	*Iorgan	*	*Iorgan
*M4/4	*M4/4	*M4/4	*M4/4	*M4/4	*M4/4	*M4/4
*met(C)	*met(C)	*met(C)	*met(C)	*met(C)	*met(C)	*met(C)
*MM60	*MM60	*MM60	*MM60	*MM60	*MM60	*MM60
*k[b-e-a-]	*k[b-e-a-]	*k[b-e-a-]	*k[b-e-a-]	*k[b-e-a-]	*k[b-e-a-]	*k[b-e-a-]
*c:	*c:	*c:	*c:	*c:	*c:	*c:
4C	4c	4e-	4g	4CC	i	4C 4e- 4g
=1	=1	=1	=1	=1	=1	=1
4BBn	4G	4d	4g	4GG	Vb	4g 4B 4dd
4C	4G	4c	4e-	4CC	i	4C 4e- 4g
4A-	4c	8c	4f	4FF	ivb	4f 4A- 4cc
.	.	8d	.	.	.	.
8E-	8c	8e-	8g	8CC	ib	8c 8E- 8g
8F	8A-	8d	8f	8DD	iiob	8d 8F 8a-
=2	=2	=2	=2	=2	=2	=2
4G	4G	4c	4e-	4CC	ic	4c 4e- 4G
4GG	8G	4Bn	4d	4GG	V	4G 4b 4dd
.	8F	.	.	.	.	.
4C;	4E-;	4G;	4c;	4CC;	i;	4C; 4e-; 4g;
4c	4c	4e-	4g	4CC	i	4C 4e- 4g
=3	=3	=3	=3	=3	=3	=3
8G	4B-	4e-	4g	4EE-	iiib	4e- 4G- 4b-
8A-	.	.	.	.	.	.
4B-	4B-	8d	4f	4BB-	-VII	4B- 4dd 4ff
.	.	8e-	.	.	.	.
4D	4B-	4f	4b-	4BB-	-VIIb	4b- 4D 4ff
4E-	4B-	8e-	8g	4EE-	III	4E- 4g 4b-
.	.	8d	8f	.	.	.
=4	=4	=4	=4	=4	=4	=4
4A-	4c	8c	4e-	4AA-	VI	4A- 4cc 4ee-
.	.	8Bn	.	.	.	.
4AA-	4A-	8c	4f	4FF	ivb	4f 4A- 4cc
.	.	8d	.	.	.	.
4GG;	4D;	4B;	4g;	4GG;	V;	4G; 4b; 4dd;
4C	4c	4e-	8g	4CC	i	4C 4e- 4g
.	.	.	8an	.	.	.
=5	=5	=5	=5	=5	=5	=5
4G	4B-y	4d	4b-	4GG	v	4G 4b- 4dd
4F	4A-	8e-	8cc	4FF	iv7	4F 4a- 4cc 4ee-
.	.	8f	8dd	.	.	.
4E-	4G	4g	4ee-	4CC	ib	4c 4E- 4g
8F	8An	4f	4dd	8DD	ii	8D 8f 8a
8G	8Bn	.	.	8GG	V7	8G 8b 8dd 8ff
=6	=6	=6	=6	=6	=6	=6
4A-y	4c	8e-	4cc	4AA-	VI	4A- 4cc 4ee-
.	.	8f	.	.	.	.
4G	4d	4g	4bn	4GG	V	4G 4b 4dd
4C;	4e-;	4g;	4cc;	4CC;	i;	4C; 4e-; 4g;
4F	4An	4f	4cc	4FF	IV	4F 4a 4cc
=7	=7	=7	=7	=7	=7	=7
4B-	4B-	4f	4dd	4BB-	-VII	4B- 4dd 4ff
4A	4c	4f#	4cc	4FF#	viib/V	4f# 4A 4cc#
4G	4d	4g	4b-	4GG	V	4G 4b 4dd
8C	8e-	8g	4a	8AA	#viD7	8A 8cc 8ee 8gg-
8D	8d	8f#	.	8DD	V/V	8D 8f# 8a
=8	=8	=8	=8	=8	=8	=8
4E-	8d	4g	4g	4CC	ib	4c 4E- 4g
.	8c	.	.	.	.	.
4D	8c	4f#	4a	4DD	V7/V	4D 4f# 4a 4cc
.	8Bn	.	.	.	.	.
4GG;	4B;	4d;	4g;	4GG;	V;	4G; 4b; 4dd;
8F	4A	4fn	4cc	4FF	IV	4F 4a 4cc
8E-	.	.	.	.	.	.
=9	=9	=9	=9	=9	=9	=9
4D	4B-	4f	4b-	4BB-	-VIIb	4b- 4D 4ff
4C	4c	4e-	4a	4AA	#viob	4a 4C 4ee-
4BB-	4F	4d	8b-	4BB-	-VII	4B- 4dd 4ff
.	.	.	8a-	.	.	.
8C	4E-	8e-	4g	4CC	i	4C 4e- 4g
8BB-	.	8d	.	.	.	.
=10	=10	=10	=10	=10	=10	=10
4AA-	4E-	4c	4g	4AA-	VI7	4A- 4cc 4ee- 4gg
4BB-	8B-	4d	4f	4BB-	-VII	4B- 4dd 4ff
.	8A-	.	.	.	.	.
4E-;	4G;	4B-;	4e-;	4EE-;	III;	4E-; 4g; 4b-;
4En	4c	4c	4g	4CC	Ib	4c 4E 4g
=11	=11	=11	=11	=11	=11	=11
4F	4c	4f	4a-	4FF	iv	4F 4a- 4cc
4G	4Bn	8e-	8g	4GG	V7	4G 4b 4dd 4ff
.	.	8d	8f	.	.	.
8A-	8c	4c	4e-	4AA-	VI	4A- 4cc 4ee-
8G	8B-	.	.	.	.	.
4F	4A-	8d	4f	4FF	iv	4F 4a- 4cc
.	.	8c	.	.	.	.
=12	=12	=12	=12	=12	=12	=12
4G	4G	8Bn	4e-	4CC	ic	4c 4e- 4G
.	.	8c	.	.	.	.
4GG	8G	8c	4d	4GG	V	4G 4b 4dd
.	8F	8B	.	.	.	.
4C;	4En;	4G;	4c;	4CC;	I;	4C; 4e; 4g;
==	==	==	==	==	==	==
*-	*-	*-	*-	*-	*-	*-
